src/icons/hds/ui/globe.svg

<svg xmlns="http://www.w3.org/2000/svg" width="24" height="24" viewBox="0 0 24 24">
  <g fill="none" fill-rule="evenodd">
    <rect width="24" height="24"/>
    <path fill="currentColor" d="M12,2 C17.5228475,2 22,6.4771525 22,12 C22,17.5228475 17.5228475,22 12,22 C6.4771525,22 2,17.5228475 2,12 C2,6.4771525 6.4771525,2 12,2 Z M7.34528502,17.0409238 C6.67885569,17.1107188 6.01455358,17.1965573 5.35358574,17.2978139 C6.35409371,18.5524554 7.70206048,19.5166768 9.25160843,20.045848 C8.46818565,19.1303593 7.82832551,18.1199514 7.34528502,17.0409238 Z M16.656212,17.0485458 C16.1740997,18.1240439 15.5361773,19.130961 14.7561127,20.0435033 C16.298144,19.5149888 17.6403259,18.5555825 18.6386101,17.3088761 L17.9421727,17.2064544 C17.5146771,17.1474336 17.0859331,17.0947974 16.656212,17.0485458 Z M12.7503555,16.8043173 L12.7506455,19.9838771 C13.7114469,19.0818003 14.4908759,18.0424782 15.0670902,16.907961 C14.2961461,16.8523401 13.5235043,16.8181577 12.7503555,16.8043173 Z M11.2500195,16.8029899 C10.5129521,16.8148798 9.77633093,16.845257 9.04149286,16.8941212 L8.93556676,16.9019368 C9.5110275,18.0367231 10.2897173,19.0764002 11.2497978,19.9789253 L11.2500195,16.8029899 Z M20.4673546,12.7501312 L17.7084169,12.7503491 C17.6500208,13.7295909 17.4775403,14.685254 17.198277,15.6033621 C17.9806454,15.6941189 18.7599299,15.8057576 19.5342715,15.9378603 C20.0415012,14.970431 20.3674506,13.8926804 20.4673546,12.7501312 Z M4.4592333,15.9263889 L4.50875728,15.9176151 C5.26997907,15.7898796 6.03590456,15.6818331 6.80500983,15.5935587 C6.52697713,14.6790662 6.355463,13.726373 6.29728118,12.7502105 L3.53264541,12.7501312 C3.63213622,13.8879555 3.95580679,14.961516 4.4592333,15.9263889 Z M12.75,12.75 L12.7502383,15.3057639 C13.7270497,15.3227886 14.7035847,15.3714402 15.6766857,15.4515524 C15.9670581,14.5862595 16.1477388,13.6805333 16.211011,12.7502914 L12.75,12.75 Z M11.25,12.75 L7.79470329,12.7502914 C7.85782972,13.6783897 8.03782408,14.5820852 8.32666756,15.4459401 C9.29909595,15.366728 10.2744766,15.3198401 11.2502685,15.3044926 L11.25,12.75 Z M19.5342237,8.06109628 L19.2177789,8.11546486 C18.5476659,8.22470177 17.8739761,8.31873561 17.1977464,8.3975004 C17.4776351,9.31479028 17.6500097,10.2703727 17.7084005,11.2495209 L20.4673546,11.2498688 C20.3674334,10.1071227 20.0413889,9.02919764 19.5342237,8.06109628 Z M4.45945536,8.07443458 L4.44179775,8.10721108 C3.94833254,9.06338341 3.63098286,10.1252349 3.53264541,11.2498688 L6.29732623,11.2495021 C6.35556521,10.2734254 6.52713032,9.32081054 6.80481443,8.40548588 C6.01907373,8.31617023 5.23673133,8.20561194 4.45945536,8.07443458 Z M15.6769398,8.54819375 L15.2070999,8.58474012 C14.3898213,8.64341171 13.5703402,8.67994712 12.7504549,8.69423187 L12.75,11.2495 L16.210977,11.2496378 C16.1476665,10.3194602 15.9669631,9.4137981 15.6769398,8.54819375 Z M8.32718385,8.55501063 L8.28830355,8.67144947 C8.02189787,9.49963931 7.85504929,10.3635143 7.79473727,11.2496378 L11.25,11.2495 L11.2501561,8.69550784 C10.2746897,8.68015859 9.29928013,8.63326179 8.32718385,8.55501063 Z M11.2497978,4.02150333 C10.2895536,4.92418227 9.510762,5.96405996 8.93527247,7.09907218 C9.70580287,7.15244167 10.4778398,7.18522903 11.2503416,7.19770834 L11.2497978,4.02150333 Z M12.7506455,4.01655149 L12.7501206,7.19642392 C13.5235557,7.18260385 14.2964564,7.14842429 15.0672749,7.09388525 C14.491149,5.9583147 13.7116153,4.91878642 12.7506455,4.01655149 Z M9.25296286,3.95331709 L9.22619743,3.96287506 C7.68691073,4.49402334 6.34790137,5.45491743 5.35257273,6.70215396 C6.01404028,6.80395336 6.67871208,6.88990914 7.34570869,6.96048833 C7.8288994,5.88027164 8.46925313,4.86919751 9.25296286,3.95331709 Z M14.7568659,3.957051 L14.8991952,4.12586717 C15.6149831,4.9932355 16.2047168,5.94228815 16.6572236,6.95147158 C17.3201894,6.88074194 17.981168,6.79414685 18.6388107,6.69229926 C17.6409005,5.44494321 16.2989289,4.48549541 14.7568659,3.957051 Z"/>
  </g>
</svg>

<svg viewBox="0 0 24 24" role="img" xmlns="http://www.w3.org/2000/svg"><g fill="none" fill-rule="evenodd"><path d="M0 0h24v24H0z"/><path d="M12 2c5.523 0 10 4.477 10 10s-4.477 10-10 10S2 17.523 2 12 6.477 2 12 2zM7.345 17.04c-.666.07-1.33.157-1.991.258a8.509 8.509 0 003.898 2.748 12.433 12.433 0 01-1.907-3.005zm9.311.009a12.437 12.437 0 01-1.9 2.995 8.519 8.519 0 003.883-2.735l-.697-.103a43.226 43.226 0 00-1.286-.157zm-3.906-.245v3.18c.961-.902 1.74-1.942 2.317-3.076-.77-.056-1.543-.09-2.317-.104zm-1.5-.001c-.737.012-1.474.042-2.209.091l-.105.008a11.137 11.137 0 002.314 3.077v-3.176zm9.217-4.053h-2.759c-.058.98-.23 1.935-.51 2.853.783.091 1.562.203 2.336.335a8.437 8.437 0 00.933-3.188zM4.46 15.926l.05-.008a44.627 44.627 0 012.296-.324 12.278 12.278 0 01-.508-2.844H3.533c.1 1.138.423 2.212.926 3.176zm8.291-3.176v2.556c.977.017 1.954.065 2.927.146.29-.866.47-1.771.534-2.702H12.75zm-1.5 0H7.795c.063.928.243 1.832.532 2.696.972-.08 1.947-.126 2.923-.142V12.75zm8.284-4.689l-.316.054c-.67.11-1.344.204-2.02.283.28.917.452 1.872.51 2.852h2.76a8.446 8.446 0 00-.934-3.189zM4.46 8.074l-.017.033a8.446 8.446 0 00-.91 3.143h2.765c.059-.977.23-1.93.508-2.845-.786-.089-1.568-.2-2.346-.33zm11.218.474l-.47.037c-.817.058-1.637.095-2.457.11v2.554h3.461a10.803 10.803 0 00-.534-2.7zm-7.35.007l-.039.116a10.808 10.808 0 00-.493 2.579h3.455V8.695a45.328 45.328 0 01-2.923-.141zm2.923-4.533a11.137 11.137 0 00-2.315 3.077c.77.053 1.543.086 2.315.099V4.022zm1.5-.005v3.18a43.965 43.965 0 002.317-.103 11.127 11.127 0 00-2.316-3.077zm-3.497-.064l-.027.01a8.517 8.517 0 00-3.873 2.74c.661.101 1.326.187 1.993.257a12.43 12.43 0 011.907-3.007zm5.504.004l.142.169a12.424 12.424 0 011.758 2.825c.663-.07 1.324-.157 1.982-.259a8.51 8.51 0 00-3.882-2.735z" fill="currentColor"/></g></svg>
